X:1
T:James Gibb editions
T:Psalm 28 (Becker) - Schütz
%%score [ ( 1 2 ) ( 3 4 ) ]
L:1/8
Q:1/4=107
M:2/2
K:G
V:1 treble nm="Soprano Alto"
V:2 treble 
V:3 bass nm="Tenor Bass"
V:4 bass 
V:1
"^Cornelius Becker\n(1561-1604)""^Psalm 28, SWV 125""^Heinrich Schütz\n(1585-1672)""^Psalm 27 (Becker) - Schütz""^Psalm 27 (Becker) - Schütz" E4 G2 A2 | %1
w: ~Ich ruf zu|
w: denn so du|
 B4 A4 | c2 B2 A4 | c4 d4- | d2 e2 A2 c2 | d4 c4 :|[M:2/2] G4 A2 c2 | B4 A4 | G2 =F2 E4 | e4 d4- | %10
w: dir, Herr|Gott, mein Hort,|dein Gnad|* an mir nicht|spa- re,|wenn ich bet|vor deim|Gna- den- thron,|laß dirs|
w: schweigst, so|muß ich fort,|gleich mit|* zur Höl- le|fah- ren,|||||
 d2 B2 d2 A2 | G4 F2 || G2- | G2 A2 B4 | G6 c2 | B2 A2 B2 ^c2 | d4 A4 | d6 c2 | B2 A2 G4 | F8 |] %20
w: * zu Her- zen|ge- hen,|und|* mein Fle-|hen duch|Chri- stum, dei- nen|Sohn, wollst,|Herr, ja|nicht ver- schmä-|hen.|
w: ||||||||||
V:2
 B,4 E2 E2 | G4 F4 | A2 ^G2 A4 | E4 G4- | G2 G2 =F2 E2 | G4 E4 :|[M:2/2] E4 =F2 G2 | G4 E4 | %8
 E2 D2 B,4 | G4 F4- | F2 E2 F2 F2 | E4 ^D2 || E2- | E2 F2 G4 | E6 G2 | G2 F2 E2 E2 | F4 F4 | %17
 G6 G2 | G2 F2 E4 | ^D8 |] %20
V:3
 G,4 C2 C2 | D4 D4 | E2 E2 E4 | A,4 B,4- | B,2 C2 C2 C2- | C2 B,2 C4 :|[M:2/2] C4 C2 E2 | D4 C4 | %8
 C2 A,2 ^G,4 | C4 A,4- | A,2 G,2 A,2 D2 | B,4 B,2 || %12
"^2. Schon mein in Gnad, wenn dein Gericht die gottlos Rott heimsuchet,\ndie gute Wort gibt männiglich und doch im Herzen fluchet.\nGib ihnen, Herr, was sie verdient nach ihrer Hände Werken,\ndu kannsts merken, wie untreu sie gesinnt, wirst sie darin nicht stärken.\n\n3. Sie achten doch nicht auf dein Wort, dein Werk sie nur verlachen,\nin ihrem Tun sie fahren fort und schmücken ihre Sachen.\nDazu kannst du stillschweigen nicht, dem Frevel willst du wehren\nund sie lehren, daß du durch dein Gericht ihr Wesen kannst zerstören.\n\n4. Zu dir all mein Vertrauen stund, du hast mein Bitt erhöret,\ndrum dank ich dir von Herzensgrund, daß du mir hast gewähret.\nMein Schild, mein Stärk du bist allein, mein Herz mit Freud durchgangen\nhat Verlangen, zu lob'n den Namen dein mit schönen Lobgesängen.\n\n5. Dein Volk, die Kirch zu jeder Frist steht fest in dem Vertrauen,\ndaß du ihr Stärk und Zuflucht bist, in Not auf dich zu bauen.\nHerr Jesu Christ, hilf deiner Schar, dein Segen tu vermehren,\nGnad bescheren, beim Wort dein Erb bewahr, bring uns ewig zu Ehren." B,2- | %13
 B,2 D2 D4 | C6 E2 | D2 D2 B,2 A,2 | A,4 D4 | D6 E2 | D2 D2 B,4 | B,8 |] %20
V:4
 G,4 C,2 A,,2 | G,,4 D,4 | A,,2 E,2 A,,4 | A,4 G,4- | G,2 C,2 =F,2 A,2 | G,4 C,4 :| %6
[M:2/2] C,4 =F,2 C,2 | G,,4 A,,4 | C,2 D,2 E,4 | C,4 D,4- | D,2 E,2 D,2 D,2 | E,4 B,,2 || E,2- | %13
 E,2 D,2 G,4 | C,6 C,2 | G,2 D,2 G,2 A,2 | D,4 D,4 | B,,6 C,2 | G,2 D,2 E,4 | B,,8 |] %20

